!!!!SEGMENT: pl-kk--kk-i-3--048_anonim--sanctus.krn
!!!cenid: 15xx:702
!!!COM: Anonim
!!!COM-rismID: pe30004985
!!!CDT:
!!!CNT:
!!!OTL: Sanctus
!!!PDT:
!!!AGN:
!!!SMS-siglum: PL-Kk
!!!SMS-shelfmark: Kk.I.3
!!!SMS-shelfwork: 048 W
!!!SMS-variant:
!!!SMS-altvar:
!!!NIFC-rismSourceID: 1001145493
!!!NIFC-islandoraID: pl-kk:1170
!!!URL-pdf-islandora: https://repozytorium.nifc.pl/islandora/object/pl-kk%3A1170/datastream/PDF/view
!!!URL-scan: https://polish.musicsources.pl/pl/lokalizacje/galeria/rekopisy/5919 @EN{Scan on Polish Music Sources Website} @PL{Skany w portalu Dziedzictwo Muzyki Polskiej w otwartym dostępie}
!!!ONB-nifc: UWAGA: Discantus (s. 133r-135v, skan 0135-0138), Tenor (s. 100v-102r, skan 0273-0274), Bassus (s. 128v-130r, skan 0432-0433). Uwaga: Sanctus razem z Benedictusem
!!!AIN: 1 bass 1 soprn 1 tenor
!!!key: F:lyd
**kern	**text	**kern	**text	**kern	**text
*group1	*	*group1	*	*group1	*
*part3	*part3	*part2	*part2	*part1	*part1
*staff3	*staff3	*staff2	*staff2	*staff1	*staff1
*I"[Bassus]	*	*I"[Tenor]	*	*I"[Discantus]	*
*I'[B]	*	*I'[T]	*	*I'[S]	*
*Ibass	*	*Itenor	*	*Isoprn	*
*ICvox	*	*ICvox	*	*ICvox	*
*clefF4	*	*clefC3	*	*clefC3	*
*k[b-]	*	*k[b-]	*	*k[b-]	*
*F:lyd	*	*F:lyd	*	*F:lyd	*
*M2/1	*	*M2/1	*	*M2/1	*
*met(C|)	*	*met(C|)	*	*met(C|)	*
=1-	=1-	=1-	=1-	=1-	=1-
*	*	*	*	*lig	*
*2\right	*	*2\right	*	*2\right	*
!LO:TX:t=P:problem=all\right&colon; global	!	!LO:TX:t=P:problem=all\right&colon; global	!	!LO:TX:t=P:problem=all\right&colon; global	!
0r	.	0c	San-	1f	San-
.	.	.	.	1g	.
*	*	*	*	*Xlig	*
=2-	=2-	=2-	=2-	=2-	=2-
*	*	*lig	*	*	*
1r	.	1d	.	1g	.
0C	San-	1c	.	2e/	.
.	.	.	.	2.c/	.
*	*	*Xlig	*	*	*
=3-	=3-	=3-	=3-	=3-	=3-
*	*	*lig	*	*	*
.	.	1A	.	.	.
.	.	.	.	4d/	.
.	.	.	.	2e\	.
*lig	*	*	*	*	*
1D	.	1F	.	1f	.
*	*	*Xlig	*	*	*
=4-	=4-	=4-	=4-	=4-	=4-
*	*	*lig	*	*	*
1C	.	1G	.	1e	.
*Xlig	*	*	*	*	*
2AA/	.	1A	.	2.f\	.
2FF/	.	.	.	.	.
.	.	.	.	4e\	.
*	*	*Xlig	*	*	*
=5-	=5-	=5-	=5-	=5-	=5-
2GG/	.	2B-/	.	2d/	.
2C/	.	2.A/	.	1c	.
*lig	*	*	*	*	*
1D	.	.	.	.	.
.	.	4G/	.	.	.
.	.	1F/	.	2B-/	.
*	*	*	*	*custos:c	*
!	!	!	!	!LO:LB:g=original	!
=6-	=6-	=6-	=6-	=6-	=6-
1C	.	.	.	1c	.
.	.	2E/	.	.	.
*Xlig	*	*	*	*	*
1FF	.	2F/	.	2r	.
*	*	*custos:A	*	*	*
!	!	!LO:PB:g=original	!	!	!
.	.	2A/	.	2c/	.
=7-	=7-	=7-	=7-	=7-	=7-
2r	.	1G	.	2d/	.
*custos:C	*	*	*	*	*
!LO:LB:g=original	!	!	!	!	!
2C/	.	.	.	2e\	.
2D/	.	2r	.	2f\	.
2F/	.	2F/	.	2d/	.
=8-	=8-	=8-	=8-	=8-	=8-
2E/	.	2G/	.	2e\	.
2D/	.	2A/	.	2f\	.
1G	.	2B-/	.	1g	.
.	.	2G/	.	.	.
=9-	=9-	=9-	=9-	=9-	=9-
2r	.	2A/	.	2c/	.
*2\right	*	*	*	*	*
2G\	.	2B-/	.	2g\	.
2F\	.	1c	.	2a\	.
2E/	.	.	.	1g\	.
=10-	=10-	=10-	=10-	=10-	=10-
*	*	*lig	*	*	*
1D	.	1F	.	.	.
.	.	.	.	1f	.
1C	.	1G	.	.	.
.	.	.	.	2e\	.
*	*	*Xlig	*	*	*
=11-	=11-	=11-	=11-	=11-	=11-
0FFl	-ctus	0F;>	-ctus	0f;<	-ctus
*custos:BB-	*	*	*	*custos:B-	*
!LO:LB:g=original	!	!	!	!LO:PB:g=original	!
=12||-	=12||-	=12||-	=12||-	=12||-	=12||-
*	*	*	*	*lig	*
*	*	*	*	*col	*
1r	.	0.B-	San-	1B-	San-
2.BB-/	San-	.	.	2.d\	.
*	*	*	*	*Xcol	*
*	*	*	*	*Xlig	*
4C/	.	.	.	4e/	.
=13-	=13-	=13-	=13-	=13-	=13-
2.D/	.	.	.	1f	.
4E/	.	.	.	.	.
*	*	*	*	*lig	*
*	*	*	*	*col	*
1F	.	0.A	.	1F	.
=14-	=14-	=14-	=14-	=14-	=14-
*lig	*	*	*	*	*
1FF	.	.	.	2.A\	.
*	*	*	*	*Xcol	*
*	*	*	*	*Xlig	*
.	.	.	.	4B-/	.
*col*	*	*	*	*lig	*
*	*	*	*	*col	*
2.AA/	.	.	.	1c	.
*Xlig	*	*	*	*	*
*Xcol	*	*	*	*	*
4BB-/	.	.	.	.	.
*	*	*custos:G	*	*	*
!	!	!LO:LB:g=original	!	!	!
=15-	=15-	=15-	=15-	=15-	=15-
2.C/	.	0.G	.	2.e\	.
*	*	*	*	*Xcol	*
*	*	*	*	*Xlig	*
4D/	.	.	.	4f\	.
2.E\	.	.	.	1g	.
4F\	.	.	.	.	.
=16-	=16-	=16-	=16-	=16-	=16-
1G	.	.	.	2d/	.
.	.	.	.	2g\	.
2.F/	.	0.A	.	2.c/	.
4E/	.	.	.	4d/	.
*custos:C	*	*	*	*	*
!LO:LB:g=original	!	!	!	!	!
=17-	=17-	=17-	=17-	=17-	=17-
2C/	.	.	.	2e/	.
*	*	*	*	*custos:f	*
2.D/	.	.	.	2d/	.
.	.	.	.	2f\	.
4C/	.	.	.	.	.
2AA/	.	.	.	2e\	.
=18-	=18-	=18-	=18-	=18-	=18-
1C	.	0.G	.	2.g\	.
.	.	.	.	4f\	.
2BB-/	.	.	.	2d/	.
2.C/	.	.	.	2e\	.
=19-	=19-	=19-	=19-	=19-	=19-
.	.	.	.	2c/	.
4BB-/	.	.	.	.	.
2GG/	.	.	.	2d/	.
!LO:N:vis=3.	!	!	!	!	!
3...G\	.	0.E	.	2e\	.
.	.	.	.	2.g\	.
!LO:TX:t=P:problem=ósemki zapisane jako półnuty z belką	!	!	!	!	!
8F/L	.	.	.	.	.
8E/	.	.	.	.	.
8D/J	.	.	.	.	.
=20-	=20-	=20-	=20-	=20-	=20-
!LO:N:vis=3.	!	!	!	!	!
3...C/	.	.	.	.	.
.	.	.	.	4f\	.
.	.	.	.	4e/	.
!LO:TX:t=P:problem=ósemki zapisane jako półnuty z belką	!	!	!	!	!
8BB-/L	.	.	.	.	.
8AA/	.	.	.	4d/	.
8GG/J	.	.	.	.	.
*lig	*	*	*	*	*
*custos:FF	*	*	*	*	*
!LO:LB:g=original	!	!	!	!	!
1FF	.	.	.	2.c/	.
.	.	.	.	4B-/	.
=21-	=21-	=21-	=21-	=21-	=21-
1.BB-	.	[00F;>l	-ctus	4A/	.
.	.	.	.	4G/	.
*	*	*	*	*custos:F	*
!	!	!	!	!LO:LB:g=original	!
.	.	.	.	1F	.
*Xlig	*	*	*	*	*
.	.	.	.	.	.
2BB-/	-ctus	.	.	1f\	.
=22-	=22-	=22-	=22-	=22-	=22-
[0FFl;>	.	.	.	.	.
.	.	.	.	4e\	.
.	.	.	.	4d\	.
.	.	.	.	0c;<	-ctus
.	.	.	.	.	.
1FF]	.	1F]	.	.	.
=23||-	=23||-	=23||-	=23||-	=23||-	=23||-
*lig	*	*	*	*	*
1FF	San-	0F	San-	1.f	San-
*col**Xcol	*	*	*	*	*
2.F\	.	.	.	.	.
.	.	.	.	4e\	.
*Xlig	*	*	*	*	*
4E/	.	.	.	4d\	.
=24-	=24-	=24-	=24-	=24-	=24-
*	*	*lig	*	*	*
2D/	.	1A	.	2f\	.
2.C/	.	.	.	2.e\	.
.	.	1c	.	.	.
4BB-/	.	.	.	4d/	.
2AA/	.	.	.	1c\	.
*	*	*Xlig	*	*	*
=25-	=25-	=25-	=25-	=25-	=25-
*	*	*lig	*	*	*
2GG/	.	1d	.	.	.
*clefF3	*	*	*	*	*
*custos:G	*	*	*	*	*
!LO:PB:g=original	!	!	!	!	!
2G/	.	.	.	2B-/	.
*	*	*	*	*custos:c	*
!	!	!	!	!LO:LB:g=original	!
2E/	.	1c	.	1c	-ctus
2F/	.	.	.	.	.
*	*	*Xlig	*	*	*
=26-	=26-	=26-	=26-	=26-	=26-
*	*	*lig	*	*	*
1D	.	1f	.	2r	.
.	.	.	.	2d\	.
2C/	.	1e	.	2e\	.
1c\	.	.	.	2c/	.
*	*	*Xlig	*	*	*
=27-	=27-	=27-	=27-	=27-	=27-
.	.	1d	.	2d/	.
2B-\	.	.	.	1g	.
1A	.	1c	.	.	.
.	.	.	.	2f\	.
=28-	=28-	=28-	=28-	=28-	=28-
*	*	*lig	*	*	*
1G	-ctus	1d	.	1g	.
2r	.	1e	.	1g	.
2E/	.	.	.	.	.
*	*	*Xlig	*	*	*
*	*	*custos:d	*	*	*
!	!	!LO:LB:g=original	!	!	!
=29-	=29-	=29-	=29-	=29-	=29-
2F/	.	2d/	.	2r	.
2G/	.	1c	.	2c/	.
2A\	.	.	.	2.d/	.
2B-\	.	2B-/	.	.	.
.	.	.	.	4e\	.
*custos:A	*	*	*	*	*
!LO:LB:g=original	!	!	!	!	!
=30-	=30-	=30-	=30-	=30-	=30-
*clefF4	*	*	*	*	*
2.A\	.	1c	-ctus	2.f\	.
4G\	.	.	.	4e\	.
2F/	.	1r	.	2d/	.
*	*	*	*	*custos:c	*
!	!	!	!	!LO:LB:g=original	!
2E/	.	.	.	1c\	.
=31-	=31-	=31-	=31-	=31-	=31-
1D	.	0r	.	.	.
.	.	.	.	2B-/	.
1C	.	.	.	1c	.
=32-	=32-	=32-	=32-	=32-	=32-
00r	.	1f	do-	2r	.
.	.	.	.	2F/	do-
.	.	1d	-mi-	2G/	-mi-
.	.	.	.	2A/	-nvs
=33-	=33-	=33-	=33-	=33-	=33-
.	.	1f	-nus	2B-/	.
.	.	.	.	1c	.
*	*	*lig	*	*	*
.	.	1e	de-	.	.
.	.	.	.	2B-/	.
=34-	=34-	=34-	=34-	=34-	=34-
2r	.	1f	.	1c	.
2F\	do-	.	.	.	.
*	*	*Xlig	*	*	*
2G\	-mi-	1e	.	2r	.
2A\	-nus	.	.	2c/	de-
=35-	=35-	=35-	=35-	=35-	=35-
2.B-\	.	1d	.	2d/	-vs
.	.	.	.	2e/	.
4A\	.	.	.	.	.
*	*	*	*	*custos:f	*
!	!	!	!	!LO:PB:g=original	!
2F\	de-	1c	.	2f\	.
2A\	-us	.	.	4e\	.
.	.	.	.	4f\	.
=36-	=36-	=36-	=36-	=36-	=36-
1G	.	1d	-us	1g	.
2r	.	1c	.	1g	.
2C/	ſab-	.	.	.	.
*custos:D	*	*	*	*	*
!LO:LB:g=original	!	!	!	!	!
=37-	=37-	=37-	=37-	=37-	=37-
*	*	*lig	*	*	*
2D/	.	1A	ſab-	2r	.
!LO:N:vis=2.	!	!	!	!	!
4.F\	.	.	.	2c/	Sa-
!LO:TX:t=P:problem=ósemki zapisane jako półnuty	!	!	!	!	!
8E/L	.	.	.	.	.
8D/	.	1F	.	2d/	-ba-
8C/	.	.	.	.	.
8BB-/	.	.	.	.	.
8AA/J	.	.	.	.	.
2GG/	.	.	.	1f\	.
*	*	*Xlig	*	*	*
*	*	*custos:B-	*	*	*
!	!	!LO:LB:g=original	!	!	!
=38-	=38-	=38-	=38-	=38-	=38-
*	*	*lig	*	*	*
2FF/	.	1B-	-ba-	.	.
2F\	.	.	.	2e/	.
2C/	.	1A	-oth	1f	.
1F\	.	.	.	.	.
*	*	*Xlig	*	*	*
=39-	=39-	=39-	=39-	=39-	=39-
.	.	2G/	.	2e/	.
2E/	.	1A	.	4c/	.
.	.	.	.	4d/	.
2F\	.	.	.	4e\	.
.	.	.	.	4f\	.
*	*	*	*	*lig	*
*	*	*	*	*custos:g	*
!	!	!	!	!LO:LB:g=original	!
2D/	.	2G/	.	1g\	.
=40-	=40-	=40-	=40-	=40-	=40-
1C	-ba-	2A/	.	.	.
.	.	2F/	.	1f	.
1r	.	1G	.	.	.
*	*	*	*	*Xlig	*
.	.	.	.	2e\	.
=41-	=41-	=41-	=41-	=41-	=41-
0FF;>l	-oth	0F;>	.	0f;l<\	-oth
=42||-	=42||-	=42||-	=42||-	=42||-	=42||-
!LO:TX:a:t=Pleni Sunt\nceli Tacet	!	!	!	!	!
0ryy	.	1A	Ple-	2.e\	ple-
.	.	.	.	4f\	-ni
.	.	1G	-ni	2g\	.
.	.	.	.	2.d/	.
=43-	=43-	=43-	=43-	=43-	=43-
0ryy	.	1F	sunt	.	.
.	.	.	.	4e/	sunt
.	.	.	.	2f\	.
*	*	*lig	*	*	*
.	.	1G	ce-	2e\	.
.	.	.	.	2d/	.
*	*	*	*	*custos:c	*
!	!	!	!	!LO:LB:g=original	!
=44-	=44-	=44-	=44-	=44-	=44-
0ryy	.	1A	.	2.c/	ce-
.	.	.	.	4d/	-li
*	*	*custos:A	*	*	*
!	!	!LO:LB:g=original	!	!	!
*	*	*Xlig	*	*	*
.	.	1A	-li	2e\	.
.	.	.	.	1f\	.
=45-	=45-	=45-	=45-	=45-	=45-
0ryy	.	1c	et	.	.
.	.	.	.	2e\	.
*	*	*lig	*	*	*
.	.	1d	ter-	2f\	.
.	.	.	.	2.d/	.
=46-	=46-	=46-	=46-	=46-	=46-
0ryy	.	1e	.	.	.
.	.	.	.	4B-/	et
.	.	.	.	2c/	.
*	*	*Xlig	*	*	*
.	.	2d/	.	1F	ter-
.	.	1c\	.	.	.
=47-	=47-	=47-	=47-	=47-	=47-
0ryy	.	.	.	1G	-ra
.	.	2B-/	.	.	.
.	.	1c	-ra	1F	.
=48-	=48-	=48-	=48-	=48-	=48-
0ryy	.	1f	glo-	2r	.
.	.	.	.	2D/	glo-
*	*	*lig	*	*	*
.	.	1f	-ri-	2.F/	-ri-
.	.	.	.	4G/	.
*	*	*	*	*custos:A	*
!	!	!	!	!LO:LB:g=original	!
=49-	=49-	=49-	=49-	=49-	=49-
0ryy	.	1c	-a	2.A/	.
.	.	.	.	4D/	.
*	*	*Xlig	*	*	*
.	.	1c	.	2.A/	-a
.	.	.	.	4B-/	.
=50-	=50-	=50-	=50-	=50-	=50-
*	*	*lig	*	*	*
0ryy	.	1A	.	2c/	.
.	.	.	.	2F/	.
.	.	1F	.	1c	.
*	*	*Xlig	*	*	*
=51-	=51-	=51-	=51-	=51-	=51-
0ryy	.	2.B-/	tu-	2r	.
*	*	*	*	*	*ij
.	.	.	.	2d\	glo-
.	.	4A/	.	.	.
.	.	2G/	.	2e\	-ri-
*	*	*clefC4	*	*	*
*	*	*custos:F	*	*	*
!	!	!LO:PB:g=original	!	!	!
.	.	2F/	.	2f\	.
=52-	=52-	=52-	=52-	=52-	=52-
0ryy	.	2E/	.	2g\	.
.	.	2F/	.	2c\	.
.	.	1D	.	2d/	-a
.	.	.	.	2f\	.
=53-	=53-	=53-	=53-	=53-	=53-
0ryy	.	00C	.	2e\	.
*	*	*	*	*custos:c	*
!	!	!	!	!LO:LB:g=original	!
.	.	.	.	1c	.
.	.	.	.	4B-/	.
.	.	.	.	4A/	.
=54-	=54-	=54-	=54-	=54-	=54-
0ryy	.	.	.	2.G/	.
.	.	.	.	4A/	.
.	.	.	.	1G	.
=55-	=55-	=55-	=55-	=55-	=55-
0ryy	.	00c	.	2.F/	.
.	.	.	.	4G/	.
.	.	.	.	4A/	.
.	.	.	.	4B-/	.
.	.	.	.	4c/	.
.	.	.	.	4d/	.
=56-	=56-	=56-	=56-	=56-	=56-
0ryy	.	.	.	4e\	.
.	.	.	.	8d/L	.
.	.	.	.	8e/J	.
.	.	.	.	1f	.
*	*	*	*	*custos:e	*
!	!	!	!	!LO:PB:g=original	!
.	.	.	.	2e\	.
=57-	=57-	=57-	=57-	=57-	=57-
0ryy	.	2A/	.	2.f\	.
.	.	2B-/	.	.	.
.	.	.	.	4d/	.
.	.	2G/	.	2e/	.
.	.	2.A/	.	2c/	.
=58-	=58-	=58-	=58-	=58-	=58-
0ryy	.	.	.	1d	.
.	.	4F/	.	.	.
.	.	2G/	.	.	.
.	.	2A/	.	2c/	.
.	.	2B-/	.	2d/	.
=59-	=59-	=59-	=59-	=59-	=59-
0ryy	.	2G/	.	2e\	tu-
.	.	2.A/	.	4f\	-a
.	.	.	.	4g\	.
.	.	.	.	2a\	.
.	.	4F/	.	.	.
*	*	*clefC3	*	*	*
*	*	*custos:G	*	*	*
!	!	!LO:LB:g=original	!	!	!
.	.	2G/	.	1g\	.
=60-	=60-	=60-	=60-	=60-	=60-
0ryy	.	2A/	.	.	.
.	.	2B-/	.	1f	.
.	.	1G	.	.	.
.	.	.	.	2e/	.
=61-	=61-	=61-	=61-	=61-	=61-
0ryy	.	0F;>	-a	0f;;	.
*	*	*clefC4	*	*	*
*	*	*	*	*custos:f	*
!	!	!	!	!LO:LB:g=original	!
=62||-	=62||-	=62||-	=62||-	=62||-	=62||-
*M3/2	*	*M3/2	*	*M3/2	*
*met(C|)	*	*	*	*	*
*	*	*col	*	*	*
!LO:TX:t=P:problem=błędne oznaczenie metra	!	!LO:TX:a:t=2	!	!	!
1.D	O-	0.A	O-	2.f\	.
.	.	.	.	4e\	.
.	.	.	.	2d/	.
=63-	=63-	=63-	=63-	=63-	=63-
1.F	-ſan-	.	.	1c	.
.	.	.	.	2d/	.
*	*	*Xcol	*	*	*
=64-	=64-	=64-	=64-	=64-	=64-
!	!	!	!	!LO:N:vis=1	!
!	!	!LO:TX:a:t=3	!	!LO:TX:t=P:rytm:problem	!
1.C	-na	1.c	-ſan-	1.e	.
=65-	=65-	=65-	=65-	=65-	=65-
*	*	*col	*	*	*
!	!	!LO:TX:a:t=2	!	!	!
1.BB-	.	0.d	-na	1f	.
.	.	.	.	2F/	.
=66-	=66-	=66-	=66-	=66-	=66-
*	*	*	*	*col	*
2.GG/	.	.	.	2G/	.
.	.	.	.	1B-	.
4AA/	.	.	.	.	.
4BB-/	.	.	.	.	.
4GG/	.	.	.	.	.
*	*	*Xcol	*	*Xcol	*
=67-	=67-	=67-	=67-	=67-	=67-
*custos:AA	*	*	*	*	*
!	!	!LO:TX:a:t=3	!	!	!
!LO:LB:g=original	!	!	!	!	!
2.AA/	.	1.e	.	2.A/	.
4BB-/	.	.	.	4G/	.
4C/	.	.	.	2A/	.
4AA/	.	.	.	.	.
=68-	=68-	=68-	=68-	=68-	=68-
*	*	*col*	*	*col	*
!	!	!LO:TX:a:t=2	!	!	!
1.D	.	0.d	.	2F/	.
.	.	.	.	1f	.
*	*	*	*	*Xcol	*
*	*	*	*	*custos:g	*
!	!	!	!	!LO:LB:g=original	!
=69-	=69-	=69-	=69-	=69-	=69-
1.GG	.	.	.	1g	.
.	.	.	.	2d/	.
*	*	*Xcol	*	*	*
=70-	=70-	=70-	=70-	=70-	=70-
1G	.	1.B-	.	2.d/	.
.	.	.	.	4e\	.
2G\	.	.	.	2d/	.
=71-	=71-	=71-	=71-	=71-	=71-
1C	.	1.c	.	2.e\	.
.	.	.	.	4f\	.
2r	.	.	.	2g\	.
=72-	=72-	=72-	=72-	=72-	=72-
*	*	*	*	*col	*
1F	.	1.r	.	1c	.
2F\	.	.	.	1f\	.
*	*	*custos:f	*	*	*
!	!	!LO:LB:g=original	!	!	!
=73-	=73-	=73-	=73-	=73-	=73-
1BB-	.	1.f	in	.	.
.	.	.	.	1F	.
2r	.	.	.	.	.
*	*	*	*	*Xcol	*
*custos:BB-	*	*	*	*	*
!LO:PB:g=original	!	!	!	!	!
=74-	=74-	=74-	=74-	=74-	=74-
*	*	*lig	*	*	*
2.BB-/	in	1.f	ex-	1F	.
4C/	e-	.	.	.	.
4D/	-xel-	.	.	2F/	.
4E/	.	.	.	.	.
=75-	=75-	=75-	=75-	=75-	=75-
1F	.	1.c	.	2A/	.
.	.	.	.	2F/	.
2E/	.	.	.	2G/	.
*	*	*Xlig	*	*	*
=76-	=76-	=76-	=76-	=76-	=76-
2.F/	.	1.c	.	2.A/	.
4G\	.	.	.	4B-/	.
2A\	.	.	.	2c/	.
*	*	*	*	*custos:d	*
!	!	!	!	!LO:LB:g=original	!
=77-	=77-	=77-	=77-	=77-	=77-
*	*	*col	*	*	*
!	!	!LO:TX:a:t=2	!	!	!
1D	.	0.A	.	1d	.
2C/	.	.	.	2e\	.
=78-	=78-	=78-	=78-	=78-	=78-
2.D/	.	.	.	2.f\	.
4E/	.	.	.	4e\	.
2F/	.	.	.	2c/	.
*	*	*Xcol	*	*	*
!LO:SIC:v:t=ustos BB-	!	!	!	!	!
!LO:LB:g=original	!	!	!	!	!
=79-	=79-	=79-	=79-	=79-	=79-
*	*	*lig	*	*	*
1BB-	.	1.F	.	2B-/	.
.	.	.	.	2d/	.
2AA/	.	.	.	2c/	.
=80-	=80-	=80-	=80-	=80-	=80-
2.BB-/	.	1.B-	.	1d	.
4C/	.	.	.	.	.
2D/	.	.	.	2r	.
*	*	*Xlig	*	*	*Xij
=81-	=81-	=81-	=81-	=81-	=81-
2GG/	.	1.B-	.	2.d/	in
1D	.	.	.	.	.
.	.	.	.	4e\	ex
.	.	.	.	2f\	.
=82-	=82-	=82-	=82-	=82-	=82-
*	*	*lig	*	*	*
1AA	.	1.A	.	2e\	.
.	.	.	.	2.c/	.
2r	.	.	.	.	.
.	.	.	.	4d/	.
=83-	=83-	=83-	=83-	=83-	=83-
*	*	*	*	*col	*
1C	.	1.G	.	2e/	.
.	.	.	.	1d	.
2BB-/	.	.	.	.	.
*	*	*Xlig	*	*Xcol	*
*	*	*	*	*custos:c	*
!	!	!	!	!LO:LB:g=original	!
=84-	=84-	=84-	=84-	=84-	=84-
*	*	*col	*	*	*
2.C/	.	2G/	.	1c	.
.	.	1A	.	.	.
2.AA/	.	.	.	.	.
.	.	.	.	2r	.
*	*	*Xcol	*	*	*
=85-	=85-	=85-	=85-	=85-	=85-
2.FF/	.	1.A	.	2.f\	.
2.F\	.	.	.	2c/	.
.	.	.	.	4d/	.
*custos:C	*	*	*	*	*
!LO:LB:g=original	!	!	!	!	!
=86-	=86-	=86-	=86-	=86-	=86-
1C	.	1.G	.	1e	.
2r	.	.	.	2r	.
=87-	=87-	=87-	=87-	=87-	=87-
*	*	*col	*	*	*
2.GG/	.	2G/	.	1.r	.
.	.	1E	.	.	.
2.G\	.	.	.	.	.
*	*	*Xcol	*	*	*
*	*	*clefC3	*	*	*
*	*	*custos:E	*	*	*
!	!	!LO:LB:g=original	!	!	!
=88-	=88-	=88-	=88-	=88-	=88-
2.E/	.	1.E	.	2.g\	.
2.C/	.	.	.	2.e/	.
=89-	=89-	=89-	=89-	=89-	=89-
*	*	*col	*	*	*
2.AA/	.	2E/	.	2.c/	.
.	.	1F	.	.	.
2.FF/	.	.	.	2.A/	.
*	*	*Xcol	*	*	*
=90-	=90-	=90-	=90-	=90-	=90-
2.F\	.	1.F	.	2.F/	.
4E/	- ſis	.	.	2.f\	.
4D/	.	.	.	.	.
4C/	.	.	.	.	.
=91-	=91-	=91-	=91-	=91-	=91-
1.BB-	.	1.F	-cel-	1.d	.
=92-	=92-	=92-	=92-	=92-	=92-
1.FF;>l	.	1.F	-ſis	1.c;<l	.
*custos:F	*	*	*	*custos:c	*
!LO:LB:g=original	!	!	!	!LO:PB:g=original	!
=93||-	=93||-	=93||-	=93||-	=93||-	=93||-
*M2/1	*	*M2/1	*	*M2/1	*
*met(C|)	*	*met(C|)	*	*met(C|)	*
1F	Be-	1f	Be-	1c	Be-
*	*	*lig	*	*	*
2D/	-ne-	1f	-ne	2d/	-ne-
2F\	-di-	.	.	2.c/	.
=94-	=94-	=94-	=94-	=94-	=94-
*lig	*	*	*	*	*
1C	-ctus	1e	.	.	.
.	.	.	.	4B-/	-di-
.	.	.	.	4A/	-ctus
.	.	.	.	4G/	.
*	*	*Xlig	*	*	*
*	*	*lig	*	*	*
1D	.	1d	.	1F	.
*Xlig	*	*	*	*	*
=95-	=95-	=95-	=95-	=95-	=95-
1C	.	1e	.	1G	.
*	*	*Xlig	*	*	*
2r	.	1c	di-	2F/	.
2C/	.	.	.	2E/	.
=96-	=96-	=96-	=96-	=96-	=96-
*	*	*lig	*	*	*
2AA/	.	1c	-ctus	2A/	.
2C/	.	.	.	1G	.
2.BB-/	.	1d	.	.	.
.	.	.	.	2F/	.
4AA/	.	.	.	.	.
*	*	*Xlig	*	*	*
*	*	*custos:e	*	*	*
!	!	!LO:LB:g=original	!	!	!
=97-	=97-	=97-	=97-	=97-	=97-
1GG	.	1e	.	1G	.
2FF/	.	1f	.	2.A/	.
2F\	Ma-	.	.	.	.
.	.	.	.	4G/	.
*	*	*	*	*custos:A	*
!	!	!	!	!LO:LB:g=original	!
=98-	=98-	=98-	=98-	=98-	=98-
2D/	-ri-	1r	.	2A/	.
2BB-/	.	.	.	1B-	.
*custos:F	*	*	*	*	*
!LO:LB:g=original	!	!	!	!	!
1F	.	1f	Ma-	.	.
.	.	.	.	2A/	.
=99-	=99-	=99-	=99-	=99-	=99-
*	*	*lig	*	*	*
1BB-	-e	1f	-ri-	4B-/	Ma-
.	.	.	.	4c/	-ri-
.	.	.	.	4d/	-e
.	.	.	.	4e\	.
2r	.	1c	-e	2f\	.
2C/	fi-	.	.	1g\	.
*	*	*Xlig	*	*	*
=100-	=100-	=100-	=100-	=100-	=100-
2AA/	-li-	0c	.	.	.
2FF/	-us	.	.	1f	fi-
1C	.	.	.	.	.
.	.	.	.	2e\	-li-
=101-	=101-	=101-	=101-	=101-	=101-
1FF	.	1A	.	1f	-us
2FF/	.	1F	fi-	2c/	.
1F\	.	.	.	1d\	.
=102-	=102-	=102-	=102-	=102-	=102-
.	.	1G	-li-	.	.
2E/	.	.	.	2e\	.
*	*	*	*	*custos:f	*
!	!	!	!	!LO:LB:g=original	!
2D/	.	1A	-us	2f\	.
2.C/	.	.	.	2.e\	.
=103-	=103-	=103-	=103-	=103-	=103-
.	.	1c	qui	.	.
4BB-/	.	.	.	4d/	.
2AA/	.	.	.	1c	.
*	*	*lig	*	*	*
1GG	.	1d	ve-	.	.
.	.	.	.	2B-/	.
*custos:C	*	*	*	*	*
!LO:PB:g=original	!	!	!	!	!
=104-	=104-	=104-	=104-	=104-	=104-
*	*	*col**Xcol	*	*	*
1C	.	2.e\	.	1c	.
*	*	*Xlig	*	*	*
.	.	8d/L	.	.	.
.	.	8c/J	.	.	.
00r	.	2e/	.	2G/	.
*	*	*custos:d	*	*	*
!	!	!LO:PB:g=original	!	!	!
.	.	1d\	.	2.B-/	.
=105-	=105-	=105-	=105-	=105-	=105-
.	.	.	.	.	.
.	.	.	.	4c/	.
.	.	1c	.	2A/	.
.	.	.	.	1G	.
.	.	2B-/	.	.	.
=106-	=106-	=106-	=106-	=106-	=106-
.	.	1c	-nit	2.g\	qui-
.	.	.	.	8f\L	.
.	.	.	.	8e\J	.
0r	.	00r	.	2g\	-ve-
*	*	*	*	*custos:f	*
!	!	!	!	!LO:LB:g=original	!
.	.	.	.	2.f\	-nit
=107-	=107-	=107-	=107-	=107-	=107-
.	.	.	.	.	.
.	.	.	.	4e\	.
.	.	.	.	4d/	.
.	.	.	.	4c/	.
1r	.	.	.	1d	ve-
=108-	=108-	=108-	=108-	=108-	=108-
2r	.	.	.	0c	-nit
2F/	in	.	.	.	.
2.F/	no-	2r	.	.	.
.	.	2f\	in	.	.
4E/	-mi-	.	.	.	.
=109-	=109-	=109-	=109-	=109-	=109-
2D/	-ne	2.f\	no-	1r	.
2C/	.	.	.	.	.
.	.	4e/	-mi-	.	.
2BB-/	.	2d/	-(ne)	00r	.
2AA/	.	2c/	.	.	.
=110-	=110-	=110-	=110-	=110-	=110-
2GG/	.	2B-/	.	.	.
2FF/	.	2A/	.	.	.
2C/	do-	2G/	.	.	.
2D/	-mi-	1F/	.	.	.
=111-	=111-	=111-	=111-	=111-	=111-
1C	-ni	.	.	.	.
.	.	2E/	.	.	.
2r	.	1F	.	00r	.
*custos:c	*	*	*	*	*
!LO:LB:g=original	!	!	!	!	!
*clefF3	*	*	*	*	*
2c\	in	.	.	.	.
=112-	=112-	=112-	=112-	=112-	=112-
2.c\	no-	0r	.	.	.
4B-\	-mi-	.	.	.	.
2A\	-ne	.	.	.	.
2G/	.	.	.	.	.
=113-	=113-	=113-	=113-	=113-	=113-
2F/	do-	1r	.	.	.
2E/	-mi-	.	.	.	.
1D	-ni	2r	.	2r	.
*	*	*clefC4	*	*	*
*	*	*lig	*	*	*
*	*	*custos:F	*	*	*
!	!	!LO:LB:g=original	!	!	!
.	.	1F/	.	2f\	in
=114-	=114-	=114-	=114-	=114-	=114-
1F	.	.	.	2.f\	no-
*	*	*col**Xcol	*	*	*
.	.	2.c\	.	.	.
.	.	.	.	4e/	-mi-
1r	.	.	.	2d/	-ne
*	*	*Xlig	*	*	*
.	.	4B-/	.	.	.
.	.	2A/	.	2c/	in
=115-	=115-	=115-	=115-	=115-	=115-
2r	.	2G/	.	2B-/	no-
*	*ij	*	*	*	*
2F/	in	2F/	.	2A/	-mi-
2G/	no-	2E/	.	1G	-ne
2E/	-mi-	2C/	.	.	.
*	*	*	*	*custos:F	*
!	!	!	!	!LO:LB:g=original	!
=116-	=116-	=116-	=116-	=116-	=116-
1F	-ne	1D	.	4F/	do-
.	.	.	.	4G/	.
.	.	.	.	4A/	.
.	.	.	.	4B-/	.
2.C/	do-	2C/	.	4c/	.
.	.	.	.	4d/	.
.	.	2.c\	.	4e/	.
4D/	-mi-	.	.	4f\	.
*custos:E	*	*	*	*	*
!LO:LB:g=original	!	!	!	!	!
=117-	=117-	=117-	=117-	=117-	=117-
*clefF4	*	*	*	*	*
2E/	-ni	.	.	4g\	.
.	.	4B-/	.	4a\	.
2F/	.	4A/	.	2.f\	.
.	.	8G/L	.	.	.
.	.	8F/J	.	.	.
1C	.	1G	.	.	.
.	.	.	.	8e\L	.
.	.	.	.	8d\J	.
.	.	.	.	2e\	.
=118-	=118-	=118-	=118-	=118-	=118-
00FF;>	.	00F;;	.	0f	-mi-
=119-	=119-	=119-	=119-	=119-	=119-
.	.	.	.	0c;<	-ni
*	*Xij	*	*	*	*
*	*	*custos:A	*	*custos:A	*
!	!	!LO:LB:g=original	!	!LO:PB:g=original	!
=120||-	=120||-	=120||-	=120||-	=120||-	=120||-
*	*	*clefC3	*	*	*
2.A\	O-	1A	O-	1A	O-
4G\	-ſan-	.	.	.	.
*	*	*lig	*	*	*
2F/	-na	1c	-san-	2A/	-san-
2E/	.	.	.	1G/	-na
=121-	=121-	=121-	=121-	=121-	=121-
1D	.	1d	-na	.	.
.	.	.	.	2F/	.
*	*	*Xlig	*	*	*
4C/	.	1e	in	2G/	.
4D/	.	.	.	.	.
4E/	.	.	.	1g\	.
4F/	.	.	.	.	.
=122-	=122-	=122-	=122-	=122-	=122-
2G\	.	2d/	e-	.	.
*custos:A	*	*	*	*	*
!LO:LB:g=original	!	!	!	!	!
2A\	.	1c	-xel	2f\	.
1G	.	.	.	1g	.
.	.	2B-/	.	.	.
=123-	=123-	=123-	=123-	=123-	=123-
2C/	.	2c/	.	2g\	.
2.D/	in	1f	.	2.f\	.
4C/	e-	.	.	4e/	.
2BB-/	-xel	2f\	.	2d/	.
=124-	=124-	=124-	=124-	=124-	=124-
2AA/	.	2.c/	.	2c/	.
4FF/	.	.	.	1f	in
4GG/	.	4B-/	.	.	.
4AA/	.	2A/	.	.	.
4BB-/	.	.	.	.	.
2C/	.	2G/	.	2e/	ex-
*	*	*	*	*custos:f	*
!	!	!	!	!LO:LB:g=original	!
=125-	=125-	=125-	=125-	=125-	=125-
2D/	.	1F	.	2.f\	.
2.BB-/	.	.	.	.	.
.	.	.	.	4e\	.
*	*	*custos:B-	*	*	*
!	!	!LO:LB:g=original	!	!	!
*	*	*clefC4	*	*	*
*	*	*lig	*	*	*
.	.	1B-	.	1.d	.
4C/	.	.	.	.	.
2.D/	.	.	.	.	.
=126-	=126-	=126-	=126-	=126-	=126-
.	.	1A	.	.	.
4E/	.	.	.	.	.
*custos:F	*	*	*	*	*
!LO:LB:g=original	!	!	!	!	!
2F\	.	.	.	1.c	.
*	*	*Xlig	*	*	*
1C	.	1G	.	.	.
=127-	=127-	=127-	=127-	=127-	=127-
2r	.	1A	.	2A/	.
2AA/	.	.	.	2e\	.
2BB-/	.	2.G/	.	2d/	.
1C/	.	.	.	2.e/	.
.	.	4F/	.	.	.
=128-	=128-	=128-	=128-	=128-	=128-
.	.	2E/	.	.	.
.	.	.	.	4c/	.
2BB-/	.	2D/	.	2f\	.
2.C/	.	2C/	.	4e\	.
.	.	.	.	4d/	.
.	.	2.c\	.	1e\	.
4BB-/	.	.	.	.	.
=129-	=129-	=129-	=129-	=129-	=129-
4AA/	.	.	.	.	.
4GG/	.	4B-/	.	.	.
2FF/	.	4A/	.	2f\	.
.	.	4G/	.	.	.
2F\	.	2A/	.	2c/	.
*	*	*	*	*custos:g	*
!	!	!	!	!LO:LB:g=original	!
2BB-/	.	2B-/	.	2.g\	.
=130-	=130-	=130-	=130-	=130-	=130-
1D	.	1F	.	.	.
.	.	.	.	4f\	.
.	.	.	.	1f	.
1C	.	1G	.	.	.
.	.	.	.	2e\	-cel-
=131-	=131-	=131-	=131-	=131-	=131-
0FF;>l	.	0Fl;;	.	0f;<l	-sis
=-	=-	=-	=-	=-	=-
*-	*-	*-	*-	*-	*-
!!!system-decoration: [(g1)]
!!!RDF**kern: > = above
!!!RDF**kern: < = below
!!!RDF**kern: l = terminal long
!!!ENC: Anastazja Marusiak
!!!END: 2022-01-21
!!!EED: Jędrzej Mróz
!!!EEV: 2022-02-06
!!!YEC: Copyright 2022 Narodowy Instytut Fryderyka Chopina (https://polishscores.org)
!!!YEM: Licence CC BY 4.0 (https://creativecommons.org/licenses/by/4.0)
